icons/repo-pull-16.svg

<svg width="16" height="16" viewBox="0 0 16 16" fill="none" xmlns="http://www.w3.org/2000/svg">
<path d="M1 2.5C1 1.11929 2.11929 0 3.5 0H12.25C12.6642 0 13 0.335786 13 0.75V6C13 6.41421 12.6642 6.75 12.25 6.75C11.8358 6.75 11.5 6.41421 11.5 6V1.5H3.5C2.94772 1.5 2.5 1.94772 2.5 2.5V9.20802C2.80623 9.07422 3.14445 9 3.5 9H6.5C6.91421 9 7.25 9.33579 7.25 9.75C7.25 10.1642 6.91421 10.5 6.5 10.5H3.5C2.94772 10.5 2.5 10.9477 2.5 11.5C2.5 12.0523 2.94772 12.5 3.5 12.5H6.5C6.91421 12.5 7.25 12.8358 7.25 13.25C7.25 13.6642 6.91421 14 6.5 14H3.5C2.11929 14 1 12.8807 1 11.5V2.5Z" fill="black"/>
<path d="M12.2101 13.4791C11.9172 13.772 11.9172 14.2469 12.2101 14.5398C12.503 14.8327 12.9779 14.8327 13.2708 14.5398L15.7755 12.035C16.0684 11.7422 16.0684 11.2673 15.7755 10.9744L13.2708 8.46967C12.9779 8.17678 12.503 8.17678 12.2101 8.46967C11.9172 8.76256 11.9172 9.23744 12.2101 9.53033L13.4344 10.7546H8.74998C8.33577 10.7546 7.99998 11.0903 7.99998 11.5045C7.99998 11.9188 8.33577 12.2546 8.74998 12.2546H13.4347L12.2101 13.4791Z" fill="black"/>
</svg>

<svg xmlns="http://www.w3.org/2000/svg" width="16" height="16" viewBox="0 0 16 16"><path d="M1 2.5A2.5 2.5 0 0 1 3.5 0h8.75a.75.75 0 0 1 .75.75V6a.75.75 0 0 1-1.5 0V1.5h-8a1 1 0 0 0-1 1v6.708A2.486 2.486 0 0 1 3.5 9h3a.75.75 0 0 1 0 1.5h-3a1 1 0 0 0 0 2h3a.75.75 0 0 1 0 1.5h-3A2.5 2.5 0 0 1 1 11.5v-9Z"/><path d="M12.21 13.479a.75.75 0 1 0 1.061 1.061l2.504-2.505a.75.75 0 0 0 0-1.061L13.271 8.47a.75.75 0 0 0-1.061 1.06l1.224 1.225H8.75a.75.75 0 1 0 0 1.5h4.685l-1.225 1.224Z"/></svg>
